X:1
T:Chanson bohême
T:Chanson bohême
T:Carmen
T:Georges Bizet
C:Georges Bizet
L:1/8
Q:1/4=96
M:3/4
K:G
V:1 treble nm="Mezzo-soprano" snm="Mzs."
V:1
 z6 | z6 | z6 | z6 | z6 | z6 | z6 | z6 | z6 | z6 | z6 | z6 | z6 | z6 | z6 | z6 | z6 | z6 | z6 | %19
w: |||||||||||||||||||
 z6 | z6 | z6 | z6 | z6 | z6 | z6 | z6 | z6 | z6 | z6 | z6 | z6 | z6 | z6 | z6 | z6 | z6 | z6 | %38
w: |||||||||||||||||||
 z6 | z6 | z6 | z6 | z6 | z6 | z6 | z6 | z6 | z6 | z6 | z6 | z6 | z6 | z6 | z6 | z6 | z6 | z6 | %57
w: |||||||||||||||||||
 z6 | z6 | z6 | z6 | z6 | z6 | z6 | z6 | z6 | z6 |[Q:1/4=108] z6 | z6 | z6 | z6 | z6 | z6 | z6 | %74
w: |||||||||||||||||
 z6 | z6 |!pp! e2 e2 e2 | (^g/f/e/^d/ ^c2- c) z | ^d2 d2 d2 | (f/e/^d/^c/ B2- B) z | ^c2 c2 c2 | %81
w: ||Tra la la|la _ _ _ _ _|Tra la la|la _ _ _ _ _|Tra la la|
 (e/^d/)^c/B/ A2 z ^E | F^G AB ^c^d | e6- | e6- | e z z4 | z6 | z6 | z6 | z6 | z6 | z6 | z6 | z6 | %94
w: la _ _ _ _ Tra|la la la la la la|la|_||||||||||
 z6 | z6 | z6 | z6 | z6 | z6 | z6 | z6 | z6 | z6 | z6 | z6 | z6 |[Q:1/4=126] z6 | z6 | z6 | z6 | %111
w: |||||||||||||||||
 z6 | z6 | z6 | z6 | z6 |!f! e2 e2 e2 | (^g/f/e/^d/ ^c2- c) z | ^d2 d2 d2 | (f/e/^d/^c/ B2- B) z | %120
w: |||||Tra la la|la _ _ _ _ _|Tra la la|la _ _ _ _ _|
 ^c2 c2 c2 | (e/^d/)^c/B/ A2 z ^E | F^G AB ^c^d | e6- | e6- | e z z4 | z6 | z6 | z6 | z6 | z6 | %131
w: Tra la la|la _ _ _ _ Tra|la la la la la la|la|_|||||||
 z6 | z6 | z6 | z6 | z6 | z6 | z6 | z6 | z6 | z6 | z6 | z6 | z6 | z6 | z6 | z6 |[Q:1/4=138] z6 | %148
w: |||||||||||||||||
 z6 | z6 | z6 | z6 | z6 | z6 | z6 | z6 |!ff! e2 e2 e2 | (^g/f/e/^d/ ^c2- c) z | ^d2 d2 d2 | %159
w: ||||||||Tra la la|la _ _ _ _ _|Tra la la|
 (f/e/^d/^c/ B2- B) z | ^c2 c2 c2 | (e/^d/)^c/B/ A2 z ^E | F^G AB ^c^d | e2- e/ z/ (^d/e/) =fc | %164
w: la _ _ _ _ _|Tra la la|la _ _ _ _ Tra|la la la la la la|la _ Tra la la la|
 e2- e/ z/ (^d/e/) =fc | e2- e/ z/ (^d/e/) =fc | e2- e/ z/ (^d/e/) =fc | e6- | e6 | %169
w: la _ Tra la la la|la _ Tra la la la|la _ Tra la la la|la|_|
!ff!{/^d} e z z2 z2 | z6 | z6 | z6 | z6 | z6 | z6 | z6 | z6 | z6 | z6 | z6 | z6 | z6 | z6 | z6 | %185
w: ||||||||||||||||
 z6 | z6 | z6 | z6 | z6 |] %190
w: |||||

